static/img/kroki/cab6e63f732da1570b3fcc5a893aec1b.svg

<?xml version="1.0" encoding="us-ascii" standalone="no"?><svg xmlns="http://www.w3.org/2000/svg" xmlns:xlink="http://www.w3.org/1999/xlink" contentStyleType="text/css" height="152px" preserveAspectRatio="none" style="width:314px;height:152px;" version="1.1" viewBox="0 0 314 152" width="314px" zoomAndPan="magnify"><defs/><g><!--class aws_ssm_document--><g id="elem_aws_ssm_document"><rect codeLine="22" fill="#3D176E" height="39.7891" id="aws_ssm_document" rx="2.5" ry="2.5" style="stroke:#000D19;stroke-width:0.5;" width="210" x="52" y="106.79"/><ellipse cx="67" cy="126.6845" fill="#ADD1B2" rx="11" ry="11" style="stroke:#181818;stroke-width:1.0;"/><path d="M69.9688,132.3252 Q69.3906,132.622 68.75,132.7627 Q68.1094,132.9189 67.4063,132.9189 Q64.9063,132.9189 63.5781,131.2783 Q62.2656,129.622 62.2656,126.497 Q62.2656,123.372 63.5781,121.7158 Q64.9063,120.0595 67.4063,120.0595 Q68.1094,120.0595 68.75,120.2158 Q69.4063,120.372 69.9688,120.6689 L69.9688,123.3877 Q69.3438,122.8095 68.75,122.5439 Q68.1563,122.2627 67.5313,122.2627 Q66.1875,122.2627 65.5,123.3408 Q64.8125,124.4033 64.8125,126.497 Q64.8125,128.5908 65.5,129.6689 Q66.1875,130.7314 67.5313,130.7314 Q68.1563,130.7314 68.75,130.4658 Q69.3438,130.1845 69.9688,129.6064 L69.9688,132.3252 Z " fill="#000000"/><text fill="#D9B8FF" font-family="Helvetica" font-size="17" lengthAdjust="spacing" textLength="168" x="86" y="132.5698">aws_ssm_document</text></g><!--class aws_ssm_resource_compliance--><g id="elem_aws_ssm_resource_compliance"><rect codeLine="24" fill="#3D176E" height="39.7891" id="aws_ssm_resource_compliance" rx="2.5" ry="2.5" style="stroke:#000D19;stroke-width:0.5;" width="300" x="7" y="7"/><ellipse cx="22" cy="26.8945" fill="#ADD1B2" rx="11" ry="11" style="stroke:#181818;stroke-width:1.0;"/><path d="M24.9688,32.5352 Q24.3906,32.832 23.75,32.9727 Q23.1094,33.1289 22.4063,33.1289 Q19.9063,33.1289 18.5781,31.4883 Q17.2656,29.832 17.2656,26.707 Q17.2656,23.582 18.5781,21.9258 Q19.9063,20.2695 22.4063,20.2695 Q23.1094,20.2695 23.75,20.4258 Q24.4063,20.582 24.9688,20.8789 L24.9688,23.5977 Q24.3438,23.0195 23.75,22.7539 Q23.1563,22.4727 22.5313,22.4727 Q21.1875,22.4727 20.5,23.5508 Q19.8125,24.6133 19.8125,26.707 Q19.8125,28.8008 20.5,29.8789 Q21.1875,30.9414 22.5313,30.9414 Q23.1563,30.9414 23.75,30.6758 Q24.3438,30.3945 24.9688,29.8164 L24.9688,32.5352 Z " fill="#000000"/><text fill="#D9B8FF" font-family="Helvetica" font-size="17" lengthAdjust="spacing" textLength="258" x="41" y="32.7798">aws_ssm_resource_compliance</text></g><!--link aws_ssm_resource_compliance to aws_ssm_document--><g id="link_aws_ssm_resource_compliance_aws_ssm_document"><path codeLine="26" d="M157,47.22 C157,64.36 157,83.27 157,100.41 " fill="none" id="aws_ssm_resource_compliance-to-aws_ssm_document" style="stroke:#1A83AF;stroke-width:2.0;"/><polygon fill="#1A83AF" points="157,106.41,161,97.41,157,101.41,153,97.41,157,106.41" style="stroke:#1A83AF;stroke-width:2.0;"/></g><!--SRC=[XP9FIyD04CNl_HGBEHSQYpQz235Gz5B4UXCfqztPPcbsDyni35NyxlQFofhOzZhlnxptXYcDGe6s3bjXqQwGUC0RuseWi28dyctXAqyYqHhqUD8LPzw5Yy0SB8fxhDum60bTuhaqSkEGMLn5qXt8pPfyuzHnVI1ml9FGXOWgAc3EGo2pQW96OTHqbMdT9RjBax5A9pVOmpmff6zaD1gfTDf5BbgTxVrBBCmxYZG-sjm7xCNiMHoeiodtH1IoL_H7Fvdn4PGoRYskezdJCHCvf3_pHGdAjtjQGyMn3GSaz65ROz5hXTDCwSc_yCCfMEul9w3b9RDTAYyRk_i8yJ7ux4Y4x1kIk9JUrfK19_50dTE7BqcQP-DyzZgyxNby0G00]--></g></svg>

<svg xmlns="http://www.w3.org/2000/svg" width="314" height="152" viewBox="0 0 314 152"><rect width="210" height="39.789" x="52" y="106.79" fill="#3D176E" rx="2.5" ry="2.5" style="stroke:#000d19;stroke-width:.5"/><circle cx="67" cy="126.684" r="11" fill="#ADD1B2" style="stroke:#181818;stroke-width:1"/><path d="M69.969 132.325q-.578.297-1.219.438-.64.156-1.344.156-2.5 0-3.828-1.64-1.312-1.657-1.312-4.782t1.312-4.781q1.328-1.656 3.828-1.656.703 0 1.344.156.656.156 1.219.453v2.719q-.625-.579-1.219-.844-.594-.281-1.219-.281-1.344 0-2.031 1.078-.687 1.062-.687 3.156t.687 3.172q.688 1.062 2.031 1.062.625 0 1.219-.265.594-.281 1.219-.86z"/><text x="86" y="132.57" fill="#D9B8FF" font-family="Helvetica" font-size="17" textLength="168">aws_ssm_document</text><rect width="300" height="39.789" x="7" y="7" fill="#3D176E" rx="2.5" ry="2.5" style="stroke:#000d19;stroke-width:.5"/><circle cx="22" cy="26.895" r="11" fill="#ADD1B2" style="stroke:#181818;stroke-width:1"/><path d="M24.969 32.535q-.578.297-1.219.438-.64.156-1.344.156-2.5 0-3.828-1.64-1.312-1.657-1.312-4.782t1.312-4.781q1.328-1.656 3.828-1.656.703 0 1.344.156.656.156 1.219.453v2.719q-.625-.578-1.219-.844-.594-.281-1.219-.281-1.343 0-2.031 1.078-.687 1.062-.687 3.156t.687 3.172q.688 1.062 2.031 1.062.625 0 1.219-.265.594-.281 1.219-.86z"/><text x="41" y="32.78" fill="#D9B8FF" font-family="Helvetica" font-size="17" textLength="258">aws_ssm_resource_compliance</text><path fill="none" d="M157 47.22v53.19" style="stroke:#1a83af;stroke-width:2"/><path fill="#1A83AF" d="m157 106.41 4-9-4 4-4-4z" style="stroke:#1a83af;stroke-width:2"/></svg>
